Suru++-Ubuntu/apps/symbolic/calligrakarbon-symbolic.svg

<svg version="1.1" viewBox="0 0 16 16" xmlns="http://www.w3.org/2000/svg">
 <defs>
  <style type="text/css">.ColorScheme-Text { color:#808080; }</style>
 </defs>
 <path class="ColorScheme-Text" d="m3.5 2c-0.828 0-1.5 0.672-1.5 1.5 0 0.656 0.414 1.20225 1 1.40625v6.09375h-1v3h3v-3h-1v-6.09375c0.432-0.15 0.75625-0.47425 0.90625-0.90625h6.09375v1h3v-3h-3v1h-6.09375c-0.204-0.586-0.75025-1-1.40625-1zm0 1c0.276 0 0.5 0.224 0.5 0.5s-0.224 0.5-0.5 0.5-0.5-0.224-0.5-0.5 0.224-0.5 0.5-0.5zm8.5 0h1v1h-1zm-9 9h1v1h-1z" style="fill:currentColor"/>
</svg>

<svg xmlns="http://www.w3.org/2000/svg" version="1.1" viewBox="0 0 16 16">
 <defs>
  <style id="current-color-scheme" type="text/css">
   .ColorScheme-Text { color:#808080; }
  </style>
 </defs>
 <path style="fill:currentColor;" class="ColorScheme-Text" d="M 3.5,2 C 2.672,2 2,2.672 2,3.5 2,4.156 2.414,4.70225 3,4.90625 V 11 H 2 v 3 H 5 V 11 H 4 V 4.90625 C 4.432,4.75625 4.75625,4.432 4.90625,4 H 11 v 1 h 3 V 2 H 11 V 3 H 4.90625 C 4.70225,2.414 4.156,2 3.5,2 Z m 0,1 C 3.776,3 4,3.224 4,3.5 4,3.776 3.776,4 3.5,4 3.224,4 3,3.776 3,3.5 3,3.224 3.224,3 3.5,3 Z M 12,3 h 1 v 1 h -1 z m -9,9 h 1 v 1 H 3 Z"/>
</svg>
